svgs/microsoft_teams.svg

<svg width="192" height="192" viewBox="0 0 192 192" fill="none" xmlns="http://www.w3.org/2000/svg"><rect x="22" y="62" width="68" height="68" rx="4" stroke="#000" stroke-width="12" stroke-linejoin="round"/><circle cx="103" cy="46" r="18" stroke="#000" stroke-width="12"/><circle cx="156" cy="53" r="11" stroke="#000" stroke-width="12"/><path fill-rule="evenodd" clip-rule="evenodd" d="M136.859 126.839c1.969 5.347 7.11 9.161 13.141 9.161 7.732 0 14-6.268 14-14V90h-27.261l-.239-11-11.004 2.341A7.988 7.988 0 0 1 132 78h36a8 8 0 0 1 8 8v36c0 14.359-11.641 26-26 26a25.916 25.916 0 0 1-17.999-7.237l4.858-13.924Z" fill="#000"/><path fill-rule="evenodd" clip-rule="evenodd" d="M62 130c0 22.091 17.909 40 40 40s40-17.909 40-40V82a4 4 0 0 0-4-4H90v12h40v40c0 15.464-12.536 28-28 28s-28-12.536-28-28H62Z" fill="#000"/><path d="M56 110V82m0 0H42m14 0h14" stroke="#000" stroke-width="12" stroke-linecap="round"/></svg>

<svg id="vector" xmlns="http://www.w3.org/2000/svg" width="192" height="192" viewBox="0 0 192 192"><path fill="#00000000" d="M26,62L86,62A4,4 0,0 1,90 66L90,126A4,4 0,0 1,86 130L26,130A4,4 0,0 1,22 126L22,66A4,4 0,0 1,26 62z" stroke-linejoin="round" stroke-width="12" stroke="#000000" id="path_0"/><path fill="#00000000" d="M103,46m-18,0a18,18 0,1 1,36 0a18,18 0,1 1,-36 0" stroke-width="12" stroke="#000000" id="path_1"/><path fill="#00000000" d="M156,53m-11,0a11,11 0,1 1,22 0a11,11 0,1 1,-22 0" stroke-width="12" stroke="#000000" id="path_2"/><path fill="#000000" d="M136.859,126.839C138.828,132.186 143.969,136 150,136C157.732,136 164,129.732 164,122V90H136.739L136.5,79L125.496,81.341C126.947,79.318 129.32,78 132,78H168C172.418,78 176,81.582 176,86V122C176,136.359 164.359,148 150,148C143.015,148 136.673,145.245 132.001,140.763L136.859,126.839Z" fill-rule="evenodd" id="path_3"/><path fill="#000000" d="M62,130C62,152.091 79.909,170 102,170C124.091,170 142,152.091 142,130V82C142,79.791 140.209,78 138,78H90V90H130V130C130,145.464 117.464,158 102,158C86.536,158 74,145.464 74,130H62Z" fill-rule="evenodd" id="path_4"/><path fill="#00000000" d="M56,110V82M56,82H42M56,82H70" stroke-width="12" stroke="#000000" stroke-linecap="round" id="path_5"/></svg>
